X: 34173
T: Reel Of Bogie, The
R: reel
M: 4/4
K: Edorian
dc|:BE ~E2 d2 cd|BFAF DEFA|BE ~E2 d2 cd|BFAF EFGA|
BE ~E2 d2 cd|BFAF DEFA|~B2 BA Bfec|1 dBAF EFGA:|2 dBAF||
D2 FAdc dB|AF ~F2 BFAF|DF (3ABc dfec|dBAF EGFE|
D2 FAdf eg|fddc defa|afdB ~B2 dB|dBAF EGFE:|

